dist/svgs/geomicons-open/icons/github.svg

<svg xmlns="http://www.w3.org/2000/svg" viewBox="0 0 32 32"><path d="M0 18c0-6 3-8 3-9-.5-2-.5-5 0-6 3 0 6 2 7 3 2-1 4-1 6-1s4 0 6 1c1-1 4-3 7-3 .5 1 .5 4 0 6 0 1 3 3 3 9 0 7-2 12-16 12S0 25 0 18m3 2c0 4 1 8 13 8s13-4 13-8-1-6-13-6-13 2-13 6m5 1a1.5 2.5 0 005 0 1.5 2.5 0 00-5 0m16 0a1.5 2.5 0 00-5 0 1.5 2.5 0 005 0z"/></svg>

<svg id="github" xmlns="http://www.w3.org/2000/svg" viewBox="0 0 32 32" width="32" height="32" fill="currentcolor">
  <path d="M0 18 C0 12 3 10 3 9 C2.5 7 2.5 4 3 3 C6 3 9 5 10 6 C12 5 14 5 16 5 C18 5 20 5 22 6 C23 5 26 3 29 3 C29.5 4 29.5 7 29 9 C29 10 32 12 32 18 C32 25 30 30 16 30 C2 30 0 25 0 18 M3 20 C3 24 4 28 16 28 C28 28 29 24 29 20 C29 16 28 14 16 14 C4 14 3 16 3 20 M8 21 A1.5 2.5 0 0 0 13 21 A1.5 2.5 0 0 0 8 21 M24 21 A1.5 2.5 0 0 0 19 21 A1.5 2.5 0 0 0 24 21 z"></path>
</svg>
